!!!COM: Roccia, Dattilo
!!!CDT:
!!!PTL: Il secondo libro de madrigali a cinque voci
!!!PPP: Naples
!!!PPR: Vitale
!!!PDT: 1603
!!!RISM: R 1807
!!!rime: 47
!!!OTL:	Non è questa la mano
!!!AGN: Madrigal
!!!SCT: Trm0047r
!!!SCA: Trm0047r
!!!voices: 5
**kern	**text
*I"Quinto	*
*I'V	*
*oclefC1	*
*clefG2	*
*k[]	*
*omet(C)	*
*M4/2	*
=1	=1
!!LO:TX:a:B:t=Prima parte
2r	.
2b	Non
2a	è
[2cc	que-
=2	=2
4cc]	.
4cc	-sta
2dd	la
2ff	ma-
2ee	-no
=3	=3
4r	.
4cc	Che
4.cc	tan-
8dd	-t'e
4cc#X	sì
4b	mor-
2cc#X	-ta-
=4	=4
4dd	-li,
4dd	Che
4.dd	tan-
8b	-t'e
4dd	sì
4ee	mor-
2dd	-ta-
=5	=5
4dd	-li,
8bL	A-
8bJ	-ven-
4b	-tò
8ccL	nel
8bJ	mio
2cc	cor
4r	.
4cc	fiam-
=6	=6
4.b	-mel-
16aLL	.
16gJJ	-l'e
4a	stra-
8gL	-li?,
8gJ	Non
2g	è
[2a	que-
=7	=7
4a]	.
4a	-sta
2g	la
2g	ma-
2f#X	-no
=8	=8
4a	Che
4.a	tan-
8b-XL	-t'e
8a	sì
8gJ	mor-
1a	-ta-
=9	=9
4g	-li,
4g	<Che
4.g	tan-
8e	-t'e
4g	sì
4a	mor-
2g	-ta-
=10	=10
4g	-li>
8gL	A-
8gJ	-ven-
4g	-tò
8aL	nel
8gJ	mio
1a	cor
=11	=11
2r	.
4r	.
4a	fiam-
2.cc	-mel-
8bL	.
8aJ	.
=12	=12
4b	.
4g	-l'e
1a	stra-
4g#X	-li,
8bL	A-
8bJ	-ven-
=13	=13
4b	-tò
8ccL	nel
8bJ	mio
2cc	cor
2r	.
4r	.
4cc	fiam-
=14	=14
8eeL	-mel-
16ddL	.
16ccJJ	.
8ddL	.
8bJ	-l'e
1cc	stra-
2b	-li?
=15	=15
2f#X	Ec-
4f#i	-co
4f#i	che
2g	pur
2e	si
=16	=16
4d	tro-
8dL	-va,
8dJ	che
2.e	pur
8d#XL	si
8c#XJ	tro-
2d#X	.
=17	=17
2e	-va
8r	.
8ee	Fra
8ccL	le
8bJ	mie
8aL	man,
8e	Fra
8f	le
8gJ	mie
4a	man
4a	ri-
=18	=18
1b-X	-stret-
[1al	-ta.
=19	=19
0a]	.
==20	==20
!!LO:TX:a:B:t=Seconda parte
2a	Né
4g	for-
4b	-z'od
2a	ar-
2g	-te
=21	=21
4r	.
8fL	per
8gJ	fug-
8aL	-gir
8fJ	li
4b-i	gio-
4a	-va,
4f	Né
4g	for-
4a	-z'od
=22	=22
2f	ar-
4e	-te
8aL	per
8gJ	fug-
8fL	-gir
8gJ	li
4a	gio-
8gL	-va,
16aL	per
16bJJ	fug-
8ccL	-gir
8aJ	li
=23	=23
2dd	gio-
4dd	-va,
4dd	Né
2.cc	for-
4a	-z'od
=24	=24
4b	ar-
8gL	-te
8aJ	per
4b	fug-
2dd	-gir
4cc	li
2b	gio-
=25	=25
2a	-va,
4r	.
4a	Né
2.ee	tien
4dd	fa-
=26	=26
4.dd	-c'o
8ee	sa-
2ff	-et-
1ee	-ta,
=27	=27
1r	.
2r	.
4r	.
4b	Né
=28	=28
2cc	tien
1cc	fa-
8bL	-c'o
8aJ	sa-
4g	-et-
=29	=29
2dd	-ta
2r	.
4r	.
8aL	Che
8aJ	da
[2a	me
=30	=30
4a]	.
8g#XL	la
8f#XJ	di-
2g#X	-fen-
4a	-da,
8ccL	<Che
8ccJ	da
[2cc	me
=31	=31
4cc]	.
8bL	la
8aJ	di-
2b	-fen-
1e	-da.>
=32	=32
4a	Giu-
4a	-st'è
2a	ben
4a	ch'io
4b	ne
2cc	pren-
=33	=33
4cc	-da,
4cc	A-
8bL	-mor,
8cc	qual-
8a	-che
8bJ	ven-
2g#X	-det-
2g#i	-ta,
=34	=34
4g#X	Giu-
4g#i	-st'è
2g#i	ben
4a	ch'io
4a	ne
2b	pren-
=35	=35
4b	-da,
4b	A-
8aL	-mor,
8b	qual-
8g	-che
8aJ	ven-
2f#X	-det-
2f#i	-ta,
=36	=36
4f#X	E
4f#i	se
4g	pia-
8fnXiL	-ghe
8gJ	mi
4a	dié
2a	ba-
8aL	-ci
8aJ	le
=37	=37
2a	ren-
2a	-da,
4a	E
4a	se
4b	pia-
8aL	-ghe
8bJ	mi
=38	=38
4cc	dié
2cc	ba-
8ccL	-ci
8ccJ	le
2cc	ren-
4cc	-da,
[4f	ba-
=39	=39
4f]	.
8gL	-ci
8gJ	le
2f#X	ren-
[1gl	-da.
==	==
*-	*-
!!!RDF**kern: i = editorial accidental
!!!RDF**kern: l = terminal long
!!!ENC: Emiliano Ricciardi
!!!END: 2017/11
!!!EED: Deutsch, Catherine
!!!EEV: 2018/07/09
!!!YEC: Copyright 2018 Emiliano Ricciardi, All Rights Reserved
!!!ONB: Translated from MusicXML on 2018/07/09 and edited by Craig Stuart Sapp
